X: 17
T: Mountain Road, The
C: Michael Gorman
Z: UPipes & harp
S: https://thesession.org/tunes/68#setting46788
R: reel
M: 4/4
L: 1/8
K: Dmaj
DE||F2AF BFAF|F2AF EFDE|F2AF BFAF|GEFD EDBA|
F2 AF BFAF|F2AF EFDE|FAAA BAFA|ABde fddc||
dcdB ADFA|dcde fgfe|dcdB ADFA|GEFD EDBc|
dcdB ADFA|dcde fgfe|dcdB ADFA|GEFD EDBA||

